; G-Code generated by Simplify3D(R) Version 3.0.2
; Jan 12, 2017 at 6:42:03 PM
; Settings Summary
;   processName,PLA Process
;   applyToModels,lens-gear-motor
;   profileName,PrusiaI3(PLA) (modified)
;   profileVersion,2017-01-07 13:27:23
;   baseProfile,Default
;   printMaterial,PLA
;   printQuality,High
;   printExtruders,
;   extruderName,Extruder 1
;   extruderToolheadNumber,0
;   extruderDiameter,0.5
;   extruderAutoWidth,0
;   extruderWidth,0.5
;   extrusionMultiplier,1.1
;   extruderUseRetract,1
;   extruderRetractionDistance,0.6
;   extruderExtraRestartDistance,0
;   extruderRetractionZLift,0
;   extruderRetractionSpeed,1200
;   extruderUseCoasting,0
;   extruderCoastingDistance,0.2
;   extruderUseWipe,0
;   extruderWipeDistance,5
;   primaryExtruder,0
;   layerHeight,0.1
;   topSolidLayers,6
;   bottomSolidLayers,6
;   perimeterOutlines,3
;   printPerimetersInsideOut,1
;   startPointOption,1
;   startPointOriginX,0
;   startPointOriginY,0
;   startPointOriginZ,300
;   sequentialIslands,0
;   spiralVaseMode,0
;   firstLayerHeightPercentage,100
;   firstLayerWidthPercentage,100
;   firstLayerUnderspeed,0.4
;   useRaft,0
;   raftExtruder,0
;   raftLayers,3
;   raftOffset,3
;   raftSeparationDistance,0.14
;   raftInfill,85
;   disableRaftBaseLayers,0
;   useSkirt,1
;   skirtExtruder,0
;   skirtLayers,2
;   skirtOutlines,2
;   skirtOffset,4
;   usePrimePillar,0
;   primePillarExtruder,999
;   primePillarWidth,12
;   primePillarLocation,7
;   primePillarSpeedMultiplier,1
;   useOozeShield,0
;   oozeShieldExtruder,999
;   oozeShieldOffset,2
;   oozeShieldOutlines,1
;   oozeShieldSidewallShape,1
;   oozeShieldSidewallAngle,30
;   oozeShieldSpeedMultiplier,1
;   infillExtruder,0
;   internalInfillPattern,Rectilinear
;   externalInfillPattern,Rectilinear
;   infillPercentage,100
;   outlineOverlapPercentage,20
;   infillExtrusionWidthPercentage,105
;   minInfillLength,5
;   infillLayerInterval,1
;   infillAngles,45,-45
;   overlapInfillAngles,0
;   generateSupport,1
;   supportExtruder,0
;   supportInfillPercentage,40
;   supportExtraInflation,0
;   denseSupportLayers,0
;   denseSupportInfillPercentage,70
;   supportLayerInterval,1
;   supportHorizontalPartOffset,0.3
;   supportUpperSeparationLayers,1
;   supportLowerSeparationLayers,1
;   supportType,0
;   supportGridSpacing,4
;   maxOverhangAngle,80
;   supportAngles,0
;   temperatureName,Extruder 1 Temperature,Heated Bed
;   temperatureNumber,0,0
;   temperatureSetpointCount,1,1
;   temperatureSetpointLayers,1,1
;   temperatureSetpointTemperatures,195,70
;   temperatureStabilizeAtStartup,1,1
;   temperatureHeatedBed,0,1
;   temperatureRelayBetweenLayers,0,0
;   temperatureRelayBetweenLoops,0,0
;   fanLayers,1,2
;   fanSpeeds,0,100
;   blipFanToFullPower,0
;   adjustSpeedForCooling,1
;   minSpeedLayerTime,15
;   minCoolingSpeedSlowdown,20
;   increaseFanForCooling,0
;   minFanLayerTime,45
;   maxCoolingFanSpeed,100
;   increaseFanForBridging,0
;   bridgingFanSpeed,100
;   use5D,1
;   relativeEdistances,0
;   allowEaxisZeroing,1
;   independentExtruderAxes,0
;   includeM10123,0
;   stickySupport,1
;   applyToolheadOffsets,0
;   gcodeXoffset,0
;   gcodeYoffset,0
;   gcodeZoffset,0
;   overrideMachineDefinition,1
;   machineTypeOverride,0
;   strokeXoverride,190
;   strokeYoverride,190
;   strokeZoverride,200
;   originOffsetXoverride,0
;   originOffsetYoverride,0
;   originOffsetZoverride,0
;   homeXdirOverride,-1
;   homeYdirOverride,-1
;   homeZdirOverride,-1
;   flipXoverride,1
;   flipYoverride,-1
;   flipZoverride,1
;   toolheadOffsets,0,0|0,0|0,0|0,0|0,0|0,0
;   overrideFirmwareConfiguration,1
;   firmwareTypeOverride,RepRap (Marlin/Repetier/Sprinter)
;   GPXconfigOverride,r2
;   baudRateOverride,250000
;   overridePrinterModels,0
;   printerModelsOverride
;   startingGcode,G28 ; home all axes,G29 ;run tramming procedure,;NOZZLE HEIGHT ADJUSTMENT,G92 Z1.1 ;set current height,G1 Z0 ;move to 0,G1 Z15.0 F9000 ;move the platform down 15mm,G92 E0                  ;zero the extruded length,G1 F200 E5              ;extrude 5mm of feed stock,G92 E0                  ;zero the extruded length again
;   layerChangeGcode,
;   retractionGcode,
;   toolChangeGcode,
;   endingGcode,G1 X0 Y0,M104 S0 ; turn off extruder,M140 S0 ; turn off bed,M84 ; disable motors
;   createX3G,0
;   celebration,0
;   celebrationSong,Random Song
;   createMB5G,0
;   postProcessing,
;   defaultSpeed,2400
;   outlineUnderspeed,0.5
;   solidInfillUnderspeed,0.6
;   supportUnderspeed,0.8
;   rapidXYspeed,2502
;   rapidZspeed,1002
;   minBridgingArea,50
;   bridgingExtraInflation,0
;   bridgingExtrusionMultiplier,1
;   bridgingSpeedMultiplier,1
;   filamentDiameter,1.743
;   filamentPricePerKg,23
;   filamentDensity,1.25
;   useMinPrintHeight,0
;   minPrintHeight,0
;   useMaxPrintHeight,0
;   maxPrintHeight,0
;   useDiaphragm,0
;   diaphragmLayerInterval,20
;   robustSlicing,1
;   mergeAllIntoSolid,0
;   onlyRetractWhenCrossingOutline,1
;   retractBetweenLayers,1
;   useRetractionMinTravel,0
;   retractionMinTravel,3
;   retractWhileWiping,0
;   onlyWipeOutlines,1
;   avoidCrossingOutline,0
;   maxMovementDetourFactor,3
;   toolChangeRetractionDistance,12
;   toolChangeExtraRestartDistance,-0.5
;   toolChangeRetractionSpeed,600
;   allowThinWallGapFill,1
;   thinWallAllowedOverlapPercentage,10
;   horizontalSizeCompensation,0
G90
M82
M106 S0
M140 S70
M190 S70
M104 S195 T0
M109 S195 T0
G28 ; home all axes
G29 ;run tramming procedure
;NOZZLE HEIGHT ADJUSTMENT
G92 Z1.1 ;set current height
G1 Z0 ;move to 0
G1 Z15.0 F9000 ;move the platform down 15mm
G92 E0                  ;zero the extruded length
G1 F200 E5              ;extrude 5mm of feed stock
G92 E0                  ;zero the extruded length again
G92 E0
G1 E-0.6000 F1200
G1 Z0.100 F1002
; layer 1, Z = 0.1
T0
; tool H0.100 W0.500
; skirt
G1 X87.957 Y88.605 F2502
G1 E0.0000 F360
G92 E0
G1 X88.704 Y88.096 E0.0209 F480
G1 X88.959 Y87.791 E0.0300
G1 X89.218 Y87.654 E0.0368
G1 X89.374 Y87.638 E0.0404
G1 X90.202 Y87.074 E0.0635
G1 X90.226 Y87.059 E0.0641
G1 X90.510 Y86.895 E0.0717
G1 X90.535 Y86.882 E0.0723
G1 X91.608 Y86.365 E0.0998
G1 X91.851 Y86.064 E0.1087
G1 X92.130 Y85.920 E0.1159
G1 X92.597 Y85.889 E0.1267
G1 X92.984 Y85.703 E0.1366
G1 X93.296 Y85.691 E0.1438
G1 X93.630 Y85.822 E0.1521
G1 X94.913 Y85.738 E0.1817
G1 X94.936 Y85.737 E0.1822
G1 X95.206 Y85.736 E0.1885
G1 X95.229 Y85.737 E0.1890
G1 X95.801 Y85.770 E0.2022
G1 X95.816 Y85.771 E0.2026
G1 X95.991 Y85.788 E0.2066
G1 X96.006 Y85.790 E0.2070
G1 X96.299 Y85.831 E0.2138
G1 X96.614 Y85.704 E0.2216
G1 X96.921 Y85.710 E0.2287
G1 X97.585 Y86.010 E0.2455
G1 X98.109 Y86.083 E0.2577
G1 X98.367 Y86.236 E0.2646
G1 X98.513 Y86.430 E0.2702
G1 X99.160 Y86.722 E0.2866
G1 X99.176 Y86.731 E0.2870
G1 X99.369 Y86.829 E0.2920
G1 X99.385 Y86.838 E0.2924
G1 X99.877 Y87.122 E0.3055
G1 X99.893 Y87.132 E0.3059
G1 X100.077 Y87.251 E0.3110
G1 X100.092 Y87.261 E0.3114
G1 X100.730 Y87.720 E0.3295
G1 X101.083 Y87.772 E0.3377
G1 X101.347 Y87.934 E0.3449
G1 X101.672 Y88.398 E0.3579
G1 X102.086 Y88.696 E0.3697
G1 X102.245 Y88.959 E0.3768
G1 X102.290 Y89.278 E0.3842
G1 X102.850 Y90.077 E0.4067
G1 X102.866 Y90.101 E0.4074
G1 X103.037 Y90.390 E0.4151
G1 X103.050 Y90.415 E0.4158
G1 X103.634 Y91.597 E0.4461
G1 X103.914 Y91.822 E0.4544
G1 X104.059 Y92.098 E0.4616
G1 X104.092 Y92.525 E0.4715
G1 X104.299 Y92.945 E0.4823
G1 X104.313 Y93.259 E0.4895
G1 X104.174 Y93.620 E0.4984
G1 X104.260 Y94.771 E0.5250
G1 X104.261 Y94.792 E0.5255
G1 X104.266 Y95.047 E0.5314
G1 X104.265 Y95.069 E0.5319
G1 X104.242 Y95.639 E0.5451
G1 X104.241 Y95.653 E0.5454
G1 X104.228 Y95.817 E0.5492
G1 X104.227 Y95.831 E0.5495
G1 X104.165 Y96.357 E0.5617
G1 X104.313 Y96.741 E0.5712
G1 X104.299 Y97.055 E0.5784
G1 X104.017 Y97.626 E0.5931
G1 X103.969 Y98.038 E0.6027
G1 X103.819 Y98.302 E0.6097
G1 X103.601 Y98.469 E0.6160
G1 X103.050 Y99.586 E0.6447
G1 X103.036 Y99.611 E0.6454
G1 X102.863 Y99.902 E0.6532
G1 X102.848 Y99.927 E0.6538
G1 X102.289 Y100.721 E0.6762
G1 X102.244 Y101.046 E0.6838
G1 X102.085 Y101.309 E0.6909
G1 X101.663 Y101.611 E0.7028
G1 X101.342 Y102.067 E0.7157
G1 X101.079 Y102.229 E0.7228
G1 X100.731 Y102.280 E0.7309
G1 X100.089 Y102.741 E0.7491
G1 X100.073 Y102.752 E0.7496
G1 X99.891 Y102.869 E0.7546
G1 X99.876 Y102.879 E0.7550
G1 X99.384 Y103.163 E0.7681
G1 X99.367 Y103.171 E0.7685
G1 X99.173 Y103.271 E0.7736
G1 X99.156 Y103.279 E0.7740
G1 X98.439 Y103.602 E0.7921
G1 X98.218 Y103.882 E0.8003
G1 X97.946 Y104.029 E0.8075
G1 X97.381 Y104.079 E0.8205
G1 X96.916 Y104.289 E0.8323
G1 X96.609 Y104.295 E0.8394
G1 X96.310 Y104.174 E0.8468
G1 X95.388 Y104.255 E0.8681
G1 X95.368 Y104.257 E0.8686
G1 X95.133 Y104.265 E0.8740
G1 X95.113 Y104.265 E0.8745
G1 X94.551 Y104.254 E0.8874
G1 X94.535 Y104.253 E0.8878
G1 X94.346 Y104.241 E0.8922
G1 X94.330 Y104.240 E0.8925
G1 X93.655 Y104.168 E0.9082
G1 X93.296 Y104.309 E0.9171
G1 X92.984 Y104.297 E0.9243
G1 X92.451 Y104.041 E0.9379
G1 X91.997 Y103.992 E0.9484
G1 X91.729 Y103.843 E0.9555
G1 X91.544 Y103.604 E0.9625
G1 X90.535 Y103.118 E0.9883
G1 X90.510 Y103.105 E0.9889
G1 X90.226 Y102.941 E0.9965
G1 X90.202 Y102.926 E0.9971
G1 X89.218 Y102.255 E1.0246
G1 X88.835 Y102.195 E1.0335
G1 X88.571 Y102.025 E1.0408
G1 X88.311 Y101.636 E1.0515
G1 X87.957 Y101.395 E1.0614
G1 X87.791 Y101.130 E1.0686
G1 X87.736 Y100.776 E1.0769
G1 X87.004 Y99.678 E1.1073
G1 X86.988 Y99.654 E1.1080
G1 X86.823 Y99.359 E1.1158
G1 X86.810 Y99.333 E1.1164
G1 X86.401 Y98.452 E1.1388
G1 X86.143 Y98.250 E1.1464
G1 X85.994 Y97.981 E1.1535
G1 X85.943 Y97.465 E1.1654
G1 X85.708 Y96.959 E1.1783
G1 X85.700 Y96.650 E1.1854
G1 X85.830 Y96.324 E1.1935
G1 X85.752 Y95.536 E1.2117
G1 X85.750 Y95.518 E1.2122
G1 X85.740 Y95.302 E1.2171
G1 X85.739 Y95.283 E1.2176
G1 X85.739 Y94.715 E1.2307
G1 X85.740 Y94.697 E1.2311
G1 X85.751 Y94.478 E1.2361
G1 X85.752 Y94.459 E1.2366
G1 X85.831 Y93.677 E1.2547
G1 X85.699 Y93.346 E1.2629
G1 X85.707 Y93.036 E1.2701
G1 X85.947 Y92.522 E1.2831
G1 X85.998 Y92.015 E1.2949
G1 X86.146 Y91.746 E1.3020
G1 X86.400 Y91.548 E1.3094
G1 X86.808 Y90.670 E1.3317
G1 X86.821 Y90.646 E1.3323
G1 X86.977 Y90.366 E1.3397
G1 X86.991 Y90.343 E1.3403
G1 X87.533 Y89.518 E1.3631
G1 X87.546 Y89.500 E1.3636
G1 X87.698 Y89.296 E1.3695
G1 X87.711 Y89.279 E1.3700
G1 X87.732 Y89.255 E1.3707
G1 X87.791 Y88.870 E1.3797
G1 X87.957 Y88.605 E1.3869
G1 X88.325 Y88.960 F2502
G92 E0
G1 X89.043 Y88.470 E0.0200 F480
G1 X89.280 Y88.187 E0.0285
G1 X89.366 Y88.142 E0.0308
G1 X89.551 Y88.123 E0.0351
G1 X90.476 Y87.492 E0.0609
G1 X90.484 Y87.487 E0.0611
G1 X90.752 Y87.332 E0.0682
G1 X90.760 Y87.328 E0.0684
G1 X91.926 Y86.767 E0.0983
G1 X92.174 Y86.460 E0.1074
G1 X92.267 Y86.412 E0.1098
G1 X92.727 Y86.382 E0.1204
G1 X93.107 Y86.199 E0.1301
G1 X93.211 Y86.195 E0.1325
G1 X93.552 Y86.328 E0.1410
G1 X94.938 Y86.237 E0.1730
G1 X94.945 Y86.237 E0.1731
G1 X95.200 Y86.236 E0.1790
G1 X95.207 Y86.236 E0.1792
G1 X95.767 Y86.269 E0.1921
G1 X95.772 Y86.269 E0.1922
G1 X95.937 Y86.286 E0.1960
G1 X95.942 Y86.286 E0.1962
G1 X96.363 Y86.345 E0.2060
G1 X96.706 Y86.206 E0.2145
G1 X96.809 Y86.208 E0.2169
G1 X97.445 Y86.496 E0.2329
G1 X97.941 Y86.565 E0.2445
G1 X98.027 Y86.616 E0.2468
G1 X98.190 Y86.833 E0.2531
G1 X98.948 Y87.176 E0.2722
G1 X98.954 Y87.178 E0.2724
G1 X99.135 Y87.271 E0.2771
G1 X99.140 Y87.274 E0.2772
G1 X99.621 Y87.552 E0.2900
G1 X99.627 Y87.555 E0.2902
G1 X99.800 Y87.667 E0.2949
G1 X99.805 Y87.671 E0.2951
G1 X100.537 Y88.198 E0.3159
G1 X100.909 Y88.252 E0.3245
G1 X100.997 Y88.306 E0.3269
G1 X101.311 Y88.755 E0.3395
G1 X101.711 Y89.042 E0.3509
G1 X101.764 Y89.130 E0.3532
G1 X101.811 Y89.467 E0.3611
G1 X102.435 Y90.356 E0.3861
G1 X102.440 Y90.364 E0.3863
G1 X102.602 Y90.637 E0.3936
G1 X102.606 Y90.645 E0.3939
G1 X103.234 Y91.918 E0.4266
G1 X103.520 Y92.147 E0.4350
G1 X103.569 Y92.239 E0.4374
G1 X103.600 Y92.660 E0.4471
G1 X103.804 Y93.072 E0.4578
G1 X103.809 Y93.177 E0.4602
G1 X103.667 Y93.546 E0.4693
G1 X103.761 Y94.801 E0.4983
G1 X103.762 Y94.808 E0.4985
G1 X103.766 Y95.048 E0.5040
G1 X103.766 Y95.055 E0.5042
G1 X103.743 Y95.614 E0.5170
G1 X103.742 Y95.619 E0.5172
G1 X103.730 Y95.773 E0.5207
G1 X103.730 Y95.778 E0.5208
G1 X103.654 Y96.422 E0.5358
G1 X103.809 Y96.823 E0.5457
G1 X103.804 Y96.928 E0.5481
G1 X103.530 Y97.482 E0.5623
G1 X103.484 Y97.879 E0.5716
G1 X103.434 Y97.967 E0.5739
G1 X103.204 Y98.143 E0.5806
G1 X102.606 Y99.356 E0.6117
G1 X102.601 Y99.365 E0.6120
G1 X102.438 Y99.639 E0.6193
G1 X102.433 Y99.647 E0.6195
G1 X101.811 Y100.532 E0.6445
G1 X101.763 Y100.875 E0.6525
G1 X101.710 Y100.962 E0.6548
G1 X101.303 Y101.254 E0.6664
G1 X100.993 Y101.695 E0.6788
G1 X100.905 Y101.749 E0.6812
G1 X100.539 Y101.803 E0.6897
G1 X99.802 Y102.331 E0.7106
G1 X99.797 Y102.335 E0.7107
G1 X99.626 Y102.445 E0.7154
G1 X99.620 Y102.449 E0.7156
G1 X99.139 Y102.726 E0.7284
G1 X99.134 Y102.729 E0.7285
G1 X98.950 Y102.823 E0.7333
G1 X98.944 Y102.826 E0.7334
G1 X98.122 Y103.197 E0.7542
G1 X97.890 Y103.491 E0.7629
G1 X97.799 Y103.540 E0.7652
G1 X97.253 Y103.589 E0.7779
G1 X96.804 Y103.791 E0.7892
G1 X96.702 Y103.793 E0.7916
G1 X96.386 Y103.665 E0.7994
G1 X95.351 Y103.757 E0.8234
G1 X95.344 Y103.757 E0.8235
G1 X95.123 Y103.765 E0.8287
G1 X95.116 Y103.765 E0.8288
G1 X94.566 Y103.754 E0.8415
G1 X94.561 Y103.754 E0.8416
G1 X94.383 Y103.743 E0.8457
G1 X94.377 Y103.742 E0.8458
G1 X93.587 Y103.658 E0.8642
G1 X93.211 Y103.805 E0.8735
G1 X93.107 Y103.801 E0.8759
G1 X92.590 Y103.552 E0.8891
G1 X92.151 Y103.506 E0.8993
G1 X92.062 Y103.456 E0.9016
G1 X91.866 Y103.204 E0.9090
G1 X90.760 Y102.672 E0.9373
G1 X90.752 Y102.668 E0.9375
G1 X90.484 Y102.513 E0.9446
G1 X90.476 Y102.508 E0.9448
G1 X89.407 Y101.779 E0.9747
G1 X89.017 Y101.717 E0.9838
G1 X88.929 Y101.661 E0.9862
G1 X88.673 Y101.278 E0.9968
G1 X88.325 Y101.040 E1.0065
G1 X88.269 Y100.952 E1.0089
G1 X88.214 Y100.590 E1.0173
G1 X87.425 Y99.409 E1.0501
G1 X87.420 Y99.400 E1.0503
G1 X87.264 Y99.123 E1.0577
G1 X87.259 Y99.114 E1.0579
G1 X86.804 Y98.132 E1.0828
G1 X86.531 Y97.919 E1.0908
G1 X86.482 Y97.830 E1.0932
G1 X86.432 Y97.331 E1.1047
G1 X86.205 Y96.842 E1.1171
G1 X86.202 Y96.739 E1.1195
G1 X86.339 Y96.395 E1.1280
G1 X86.250 Y95.493 E1.1489
G1 X86.249 Y95.487 E1.1491
G1 X86.239 Y95.283 E1.1538
G1 X86.239 Y95.277 E1.1539
G1 X86.239 Y94.722 E1.1667
G1 X86.239 Y94.715 E1.1669
G1 X86.250 Y94.509 E1.1716
G1 X86.250 Y94.503 E1.1718
G1 X86.340 Y93.606 E1.1926
G1 X86.201 Y93.257 E1.2012
G1 X86.204 Y93.154 E1.2036
G1 X86.436 Y92.657 E1.2162
G1 X86.485 Y92.167 E1.2276
G1 X86.534 Y92.077 E1.2300
G1 X86.803 Y91.868 E1.2378
G1 X87.258 Y90.889 E1.2627
G1 X87.262 Y90.881 E1.2629
G1 X87.409 Y90.618 E1.2698
G1 X87.414 Y90.610 E1.2700
G1 X87.947 Y89.799 E1.2924
G1 X87.951 Y89.793 E1.2926
G1 X88.095 Y89.600 E1.2981
G1 X88.099 Y89.595 E1.2983
G1 X88.205 Y89.469 E1.3021
G1 X88.269 Y89.048 E1.3119
G1 X88.325 Y88.960 E1.3143
G92 E0
G1 E-0.6000 F1200
; inner perimeter
; inner perimeter
; outer perimeter
G1 X99.150 Y95.000 F2502
G1 E0.0000 F1200
G92 E0
G1 X99.137 Y95.325 E0.0075 F240
G1 X99.134 Y95.354 E0.0082
G1 X98.569 Y95.271 E0.0213
G1 X98.226 Y96.549 E0.0518
G1 X98.754 Y96.759 E0.0649
G1 X98.708 Y96.863 E0.0676
G1 X98.555 Y97.141 E0.0749
G1 X98.395 Y97.368 E0.0813
G1 X97.955 Y97.019 E0.0942
G1 X97.019 Y97.955 E0.1247
G1 X97.370 Y98.398 E0.1377
G1 X97.210 Y98.512 E0.1422
G1 X96.934 Y98.672 E0.1496
G1 X96.759 Y98.755 E0.1541
G1 X96.549 Y98.226 E0.1672
G1 X95.271 Y98.569 E0.1977
G1 X95.354 Y99.133 E0.2108
G1 X95.081 Y99.149 E0.2171
G1 X94.750 Y99.142 E0.2248
G1 X94.646 Y99.131 E0.2272
G1 X94.729 Y98.569 E0.2402
G1 X93.451 Y98.226 E0.2707
G1 X93.240 Y98.757 E0.2839
G1 X93.210 Y98.744 E0.2847
G1 X92.925 Y98.594 E0.2921
G1 X92.650 Y98.420 E0.2996
G1 X92.626 Y98.403 E0.3003
G1 X92.981 Y97.955 E0.3134
G1 X92.045 Y97.019 E0.3439
G1 X91.600 Y97.372 E0.3570
G1 X91.532 Y97.279 E0.3596
G1 X91.369 Y97.008 E0.3669
G1 X91.252 Y96.757 E0.3733
G1 X91.774 Y96.549 E0.3863
G1 X91.431 Y95.271 E0.4168
G1 X90.868 Y95.354 E0.4299
G1 X90.853 Y95.161 E0.4344
G1 X90.853 Y94.842 E0.4417
G1 X90.873 Y94.647 E0.4462
G1 X91.431 Y94.729 E0.4592
G1 X91.774 Y93.451 E0.4897
