; G-Code generated by Simplify3D(R) Version 3.0.2
; Feb 9, 2017 at 2:11:13 PM
; Settings Summary
;   processName,0-18.2
;   applyToModels,motor-mount
;   profileName,ABS High Res (modified)
;   profileVersion,2016-09-06 19:45:25
;   baseProfile,Default (modified)
;   printMaterial,ABS
;   printQuality,High
;   printExtruders,
;   extruderName,Primary Extruder
;   extruderToolheadNumber,0
;   extruderDiameter,0.5
;   extruderAutoWidth,0
;   extruderWidth,0.53
;   extrusionMultiplier,1
;   extruderUseRetract,1
;   extruderRetractionDistance,1
;   extruderExtraRestartDistance,0
;   extruderRetractionZLift,0
;   extruderRetractionSpeed,1800
;   extruderUseCoasting,0
;   extruderCoastingDistance,0.2
;   extruderUseWipe,0
;   extruderWipeDistance,5
;   primaryExtruder,0
;   layerHeight,0.2
;   topSolidLayers,6
;   bottomSolidLayers,6
;   perimeterOutlines,3
;   printPerimetersInsideOut,1
;   startPointOption,2
;   startPointOriginX,0
;   startPointOriginY,0
;   startPointOriginZ,300
;   sequentialIslands,0
;   spiralVaseMode,0
;   firstLayerHeightPercentage,100
;   firstLayerWidthPercentage,100
;   firstLayerUnderspeed,0.5
;   useRaft,0
;   raftExtruder,0
;   raftLayers,3
;   raftOffset,3
;   raftSeparationDistance,0.14
;   raftInfill,85
;   disableRaftBaseLayers,0
;   useSkirt,1
;   skirtExtruder,0
;   skirtLayers,1
;   skirtOutlines,6
;   skirtOffset,4
;   usePrimePillar,0
;   primePillarExtruder,999
;   primePillarWidth,12
;   primePillarLocation,7
;   primePillarSpeedMultiplier,1
;   useOozeShield,0
;   oozeShieldExtruder,999
;   oozeShieldOffset,2
;   oozeShieldOutlines,1
;   oozeShieldSidewallShape,1
;   oozeShieldSidewallAngle,30
;   oozeShieldSpeedMultiplier,1
;   infillExtruder,0
;   internalInfillPattern,Rectilinear
;   externalInfillPattern,Rectilinear
;   infillPercentage,100
;   outlineOverlapPercentage,15
;   infillExtrusionWidthPercentage,100
;   minInfillLength,5
;   infillLayerInterval,1
;   infillAngles,45,-45
;   overlapInfillAngles,0
;   generateSupport,0
;   supportExtruder,0
;   supportInfillPercentage,50
;   supportExtraInflation,0
;   denseSupportLayers,0
;   denseSupportInfillPercentage,70
;   supportLayerInterval,1
;   supportHorizontalPartOffset,0.3
;   supportUpperSeparationLayers,1
;   supportLowerSeparationLayers,1
;   supportType,0
;   supportGridSpacing,4
;   maxOverhangAngle,45
;   supportAngles,0
;   temperatureName,Primary Extruder,Heated Bed
;   temperatureNumber,0,0
;   temperatureSetpointCount,1,1
;   temperatureSetpointLayers,1,1
;   temperatureSetpointTemperatures,245,100
;   temperatureStabilizeAtStartup,1,1
;   temperatureHeatedBed,0,1
;   temperatureRelayBetweenLayers,0,0
;   temperatureRelayBetweenLoops,0,0
;   fanLayers,1
;   fanSpeeds,0
;   blipFanToFullPower,0
;   adjustSpeedForCooling,1
;   minSpeedLayerTime,15
;   minCoolingSpeedSlowdown,20
;   increaseFanForCooling,0
;   minFanLayerTime,45
;   maxCoolingFanSpeed,100
;   increaseFanForBridging,0
;   bridgingFanSpeed,100
;   use5D,1
;   relativeEdistances,0
;   allowEaxisZeroing,1
;   independentExtruderAxes,0
;   includeM10123,0
;   stickySupport,1
;   applyToolheadOffsets,0
;   gcodeXoffset,0
;   gcodeYoffset,0
;   gcodeZoffset,0
;   overrideMachineDefinition,0
;   machineTypeOverride,0
;   strokeXoverride,200
;   strokeYoverride,200
;   strokeZoverride,200
;   originOffsetXoverride,0
;   originOffsetYoverride,0
;   originOffsetZoverride,0
;   homeXdirOverride,-1
;   homeYdirOverride,-1
;   homeZdirOverride,-1
;   flipXoverride,1
;   flipYoverride,-1
;   flipZoverride,1
;   toolheadOffsets,0,0|0,0|0,0|0,0|0,0|0,0
;   overrideFirmwareConfiguration,0
;   firmwareTypeOverride,RepRap (Marlin/Repetier/Sprinter)
;   GPXconfigOverride,r2
;   baudRateOverride,115200
;   overridePrinterModels,0
;   printerModelsOverride
;   startingGcode,G28 ; Run auto homing procedure,G29 ; Run tramming procedure,; set Z-Offset (nozzle height) DOWN,G92 Z1.2 ;set current height,G1 Z0 ;move to 0,G1 Z15.0 F{travel_speed} ;move the platform down 15mm,G92 E0                  ;zero the extruded length,G1 F200 E3              ;extrude 3mm of feed stock,G92 E0                  ;zero the extruded length again,
;   layerChangeGcode,
;   retractionGcode,
;   toolChangeGcode,
;   endingGcode,G1 X0 Y0,M104 S0 ; turn off extruder,M140 S0 ; turn off bed,M84 ; disable motors
;   createX3G,0
;   celebration,0
;   celebrationSong,Random Song
;   createMB5G,0
;   postProcessing,
;   defaultSpeed,2100
;   outlineUnderspeed,0.5
;   solidInfillUnderspeed,0.8
;   supportUnderspeed,0.8
;   rapidXYspeed,3000
;   rapidZspeed,1002
;   minBridgingArea,50
;   bridgingExtraInflation,0
;   bridgingExtrusionMultiplier,1
;   bridgingSpeedMultiplier,1
;   filamentDiameter,1.74
;   filamentPricePerKg,46
;   filamentDensity,1.25
;   useMinPrintHeight,0
;   minPrintHeight,0
;   useMaxPrintHeight,1
;   maxPrintHeight,18.2
;   useDiaphragm,0
;   diaphragmLayerInterval,20
;   robustSlicing,1
;   mergeAllIntoSolid,0
;   onlyRetractWhenCrossingOutline,1
;   retractBetweenLayers,1
;   useRetractionMinTravel,0
;   retractionMinTravel,3
;   retractWhileWiping,0
;   onlyWipeOutlines,1
;   avoidCrossingOutline,0
;   maxMovementDetourFactor,3
;   toolChangeRetractionDistance,12
;   toolChangeExtraRestartDistance,-0.5
;   toolChangeRetractionSpeed,600
;   allowThinWallGapFill,1
;   thinWallAllowedOverlapPercentage,10
;   horizontalSizeCompensation,0
G90
M82
M106 S0
M140 S100
M190 S100
M104 S245 T0
M109 S245 T0
G28 ; Run auto homing procedure
G29 ; Run tramming procedure
; set Z-Offset (nozzle height) DOWN
G92 Z1.2 ;set current height
G1 Z0 ;move to 0
G1 Z15.0 F{travel_speed} ;move the platform down 15mm
G92 E0                  ;zero the extruded length
G1 F200 E3              ;extrude 3mm of feed stock
G92 E0                  ;zero the extruded length again
G92 E0
G1 E-1.0000 F1800
G1 Z0.200 F1002
; layer 1, Z = 0.2
T0
; tool H0.200 W0.530
; skirt
G1 X72.716 Y73.019 F3000
G1 E0.0000 F540
G92 E0
G1 X73.019 Y72.716 E0.0191 F1050
G1 X73.103 Y72.638 E0.0242
G1 X74.145 Y71.748 E0.0853
G1 X74.235 Y71.678 E0.0904
G1 X74.582 Y71.425 E0.1095
G1 X74.677 Y71.362 E0.1146
G1 X75.846 Y70.646 E0.1757
G1 X75.946 Y70.590 E0.1808
G1 X76.328 Y70.395 E0.1999
G1 X76.432 Y70.347 E0.2050
G1 X77.698 Y69.823 E0.2661
G1 X77.805 Y69.783 E0.2712
G1 X78.213 Y69.651 E0.2903
G1 X78.323 Y69.620 E0.2954
G1 X79.656 Y69.300 E0.3565
G1 X79.768 Y69.278 E0.3616
G1 X80.191 Y69.210 E0.3807
G1 X80.305 Y69.197 E0.3859
G1 X81.564 Y69.098 E0.4422
G1 X81.621 Y69.095 E0.4447
G1 X81.836 Y69.086 E0.4543
G1 X81.893 Y69.085 E0.4568
G1 X116.237 Y69.085 E1.9878
G1 X117.308 Y69.529 E2.0395
G1 X120.471 Y72.692 E2.2389
G1 X120.915 Y73.763 E2.2906
G1 X120.915 Y116.237 E4.1839
G1 X120.471 Y117.308 E4.2356
G1 X117.308 Y120.471 E4.4351
G1 X116.237 Y120.915 E4.4868
G1 X73.763 Y120.915 E6.3801
G1 X72.692 Y120.471 E6.4318
G1 X69.529 Y117.308 E6.6312
G1 X69.085 Y116.237 E6.6829
G1 X69.085 Y81.893 E8.2139
G1 X69.086 Y81.836 E8.2164
G1 X69.095 Y81.621 E8.2260
G1 X69.098 Y81.564 E8.2285
G1 X69.197 Y80.305 E8.2848
G1 X69.210 Y80.191 E8.2900
G1 X69.278 Y79.768 E8.3091
G1 X69.300 Y79.656 E8.3142
G1 X69.620 Y78.323 E8.3753
G1 X69.651 Y78.213 E8.3804
G1 X69.783 Y77.805 E8.3995
G1 X69.823 Y77.698 E8.4046
G1 X70.347 Y76.432 E8.4657
G1 X70.395 Y76.328 E8.4708
G1 X70.590 Y75.946 E8.4899
G1 X70.646 Y75.846 E8.4950
G1 X71.362 Y74.677 E8.5561
G1 X71.425 Y74.582 E8.5612
G1 X71.678 Y74.235 E8.5803
G1 X71.748 Y74.145 E8.5854
G1 X72.638 Y73.103 E8.6465
G1 X72.716 Y73.019 E8.6516
G1 X73.098 Y73.387 F3000
G92 E0
G1 X73.387 Y73.098 E0.0182 F1050
G1 X73.455 Y73.035 E0.0224
G1 X74.482 Y72.158 E0.0825
G1 X74.555 Y72.100 E0.0867
G1 X74.885 Y71.860 E0.1049
G1 X74.963 Y71.808 E0.1091
G1 X76.114 Y71.103 E0.1692
G1 X76.196 Y71.057 E0.1734
G1 X76.559 Y70.872 E0.1916
G1 X76.644 Y70.833 E0.1958
G1 X77.891 Y70.317 E0.2559
G1 X77.979 Y70.284 E0.2601
G1 X78.367 Y70.158 E0.2783
G1 X78.457 Y70.133 E0.2824
G1 X79.769 Y69.818 E0.3426
G1 X79.861 Y69.799 E0.3468
G1 X80.264 Y69.736 E0.3650
G1 X80.357 Y69.725 E0.3691
G1 X81.601 Y69.627 E0.4248
G1 X81.647 Y69.624 E0.4268
G1 X81.851 Y69.616 E0.4359
G1 X81.898 Y69.615 E0.4380
G1 X116.131 Y69.615 E1.9641
G1 X117.008 Y69.978 E2.0064
G1 X120.022 Y72.992 E2.1964
G1 X120.385 Y73.869 E2.2387
G1 X120.385 Y116.131 E4.1226
G1 X120.022 Y117.008 E4.1649
G1 X117.008 Y120.022 E4.3549
G1 X116.131 Y120.385 E4.3972
G1 X73.869 Y120.385 E6.2812
G1 X72.992 Y120.022 E6.3235
G1 X69.978 Y117.008 E6.5135
G1 X69.615 Y116.131 E6.5558
G1 X69.615 Y81.898 E8.0818
G1 X69.616 Y81.851 E8.0839
G1 X69.624 Y81.647 E8.0930
G1 X69.627 Y81.601 E8.0951
G1 X69.725 Y80.357 E8.1507
G1 X69.736 Y80.264 E8.1549
G1 X69.799 Y79.861 E8.1731
G1 X69.818 Y79.769 E8.1773
G1 X70.133 Y78.457 E8.2374
G1 X70.158 Y78.367 E8.2416
G1 X70.284 Y77.979 E8.2598
G1 X70.317 Y77.891 E8.2640
G1 X70.833 Y76.644 E8.3241
G1 X70.872 Y76.559 E8.3283
G1 X71.057 Y76.196 E8.3465
G1 X71.103 Y76.114 E8.3506
G1 X71.808 Y74.963 E8.4108
G1 X71.860 Y74.885 E8.4150
G1 X72.100 Y74.555 E8.4332
G1 X72.158 Y74.482 E8.4373
G1 X73.035 Y73.455 E8.4975
G1 X73.098 Y73.387 E8.5017
G1 X73.480 Y73.754 F3000
G92 E0
G1 X73.754 Y73.480 E0.0173 F1050
G1 X73.808 Y73.431 E0.0205
G1 X74.818 Y72.568 E0.0797
G1 X74.875 Y72.523 E0.0830
G1 X75.188 Y72.295 E0.1002
G1 X75.249 Y72.255 E0.1035
G1 X76.382 Y71.561 E0.1627
G1 X76.445 Y71.525 E0.1660
G1 X76.790 Y71.349 E0.1832
G1 X76.857 Y71.319 E0.1865
G1 X78.084 Y70.810 E0.2457
G1 X78.152 Y70.785 E0.2490
G1 X78.521 Y70.665 E0.2662
G1 X78.591 Y70.646 E0.2695
G1 X79.883 Y70.335 E0.3287
G1 X79.954 Y70.321 E0.3319
G1 X80.337 Y70.261 E0.3492
G1 X80.409 Y70.252 E0.3524
G1 X81.637 Y70.155 E0.4074
G1 X81.673 Y70.153 E0.4090
G1 X81.867 Y70.146 E0.4176
G1 X81.903 Y70.145 E0.4192
G1 X116.026 Y70.145 E1.9403
G1 X116.708 Y70.427 E1.9732
G1 X119.573 Y73.292 E2.1538
G1 X119.855 Y73.974 E2.1867
G1 X119.855 Y116.026 E4.0613
G1 X119.573 Y116.708 E4.0942
G1 X116.708 Y119.573 E4.2748
G1 X116.026 Y119.855 E4.3077
G1 X73.974 Y119.855 E6.1823
G1 X73.292 Y119.573 E6.2152
G1 X70.427 Y116.708 E6.3958
G1 X70.145 Y116.026 E6.4287
G1 X70.145 Y81.903 E7.9498
G1 X70.146 Y81.867 E7.9514
G1 X70.153 Y81.673 E7.9600
G1 X70.155 Y81.637 E7.9617
G1 X70.252 Y80.409 E8.0166
G1 X70.261 Y80.337 E8.0198
G1 X70.321 Y79.954 E8.0371
G1 X70.335 Y79.883 E8.0403
G1 X70.646 Y78.591 E8.0996
G1 X70.665 Y78.521 E8.1028
G1 X70.785 Y78.152 E8.1201
G1 X70.810 Y78.084 E8.1233
G1 X71.319 Y76.857 E8.1826
G1 X71.349 Y76.790 E8.1858
G1 X71.525 Y76.446 E8.2031
G1 X71.561 Y76.382 E8.2063
G1 X72.255 Y75.249 E8.2655
G1 X72.295 Y75.188 E8.2688
G1 X72.523 Y74.875 E8.2860
G1 X72.568 Y74.818 E8.2893
G1 X73.431 Y73.808 E8.3485
G1 X73.480 Y73.754 E8.3518
G1 X73.862 Y74.122 F3000
G92 E0
G1 X74.122 Y73.862 E0.0163 F1050
G1 X74.160 Y73.827 E0.0186
G1 X75.154 Y72.978 E0.0770
G1 X75.195 Y72.946 E0.0793
G1 X75.492 Y72.730 E0.0956
G1 X75.535 Y72.701 E0.0979
G1 X76.650 Y72.018 E0.1562
G1 X76.695 Y71.992 E0.1585
G1 X77.022 Y71.826 E0.1749
G1 X77.069 Y71.804 E0.1772
G1 X78.277 Y71.304 E0.2355
G1 X78.326 Y71.286 E0.2378
G1 X78.675 Y71.173 E0.2541
G1 X78.725 Y71.159 E0.2565
G1 X79.996 Y70.853 E0.3148
G1 X80.047 Y70.843 E0.3171
G1 X80.409 Y70.786 E0.3334
G1 X80.461 Y70.780 E0.3357
G1 X81.674 Y70.684 E0.3900
G1 X81.699 Y70.683 E0.3911
G1 X81.882 Y70.676 E0.3993
G1 X81.908 Y70.675 E0.4004
G1 X115.920 Y70.675 E1.9166
G1 X116.407 Y70.877 E1.9401
G1 X119.123 Y73.593 E2.1113
G1 X119.325 Y74.080 E2.1348
G1 X119.325 Y115.920 E4.0000
G1 X119.123 Y116.407 E4.0235
G1 X116.407 Y119.123 E4.1947
G1 X115.920 Y119.325 E4.2182
G1 X74.080 Y119.325 E6.0834
G1 X73.593 Y119.123 E6.1069
G1 X70.877 Y116.407 E6.2781
G1 X70.675 Y115.920 E6.3016
G1 X70.675 Y81.908 E7.8178
G1 X70.676 Y81.882 E7.8189
G1 X70.683 Y81.699 E7.8271
G1 X70.684 Y81.674 E7.8282
G1 X70.780 Y80.461 E7.8825
G1 X70.786 Y80.409 E7.8848
G1 X70.843 Y80.047 E7.9011
G1 X70.853 Y79.996 E7.9034
G1 X71.159 Y78.725 E7.9617
G1 X71.173 Y78.675 E7.9641
G1 X71.286 Y78.326 E7.9804
G1 X71.304 Y78.277 E7.9827
G1 X71.804 Y77.069 E8.0410
G1 X71.826 Y77.022 E8.0433
G1 X71.992 Y76.695 E8.0597
G1 X72.018 Y76.650 E8.0620
G1 X72.701 Y75.535 E8.1203
G1 X72.730 Y75.492 E8.1226
G1 X72.946 Y75.195 E8.1389
G1 X72.978 Y75.154 E8.1412
G1 X73.827 Y74.160 E8.1995
G1 X73.862 Y74.122 E8.2019
G1 X74.245 Y74.489 F3000
G92 E0
G1 X74.489 Y74.245 E0.0154 F1050
G1 X74.512 Y74.223 E0.0168
G1 X75.491 Y73.388 E0.0742
G1 X75.515 Y73.368 E0.0756
G1 X75.795 Y73.165 E0.0910
G1 X75.821 Y73.148 E0.0924
G1 X76.918 Y72.475 E0.1497
G1 X76.945 Y72.460 E0.1511
G1 X77.253 Y72.303 E0.1665
G1 X77.281 Y72.290 E0.1679
G1 X78.471 Y71.798 E0.2253
G1 X78.500 Y71.787 E0.2267
G1 X78.828 Y71.680 E0.2421
G1 X78.858 Y71.671 E0.2435
G1 X80.110 Y71.371 E0.3009
G1 X80.141 Y71.365 E0.3022
G1 X80.482 Y71.311 E0.3176
G1 X80.513 Y71.307 E0.3190
G1 X81.710 Y71.213 E0.3726
G1 X81.725 Y71.212 E0.3733
G1 X81.898 Y71.205 E0.3810
G1 X81.914 Y71.205 E0.3817
G1 X115.815 Y71.205 E1.8929
G1 X116.107 Y71.326 E1.9070
G1 X118.674 Y73.893 E2.0688
G1 X118.795 Y74.185 E2.0829
G1 X118.795 Y115.815 E3.9387
G1 X118.674 Y116.107 E3.9528
G1 X116.107 Y118.674 E4.1146
G1 X115.815 Y118.795 E4.1287
G1 X74.185 Y118.795 E5.9845
G1 X73.893 Y118.674 E5.9986
G1 X71.326 Y116.107 E6.1604
G1 X71.205 Y115.815 E6.1745
G1 X71.205 Y81.914 E7.6857
G1 X71.205 Y81.898 E7.6864
G1 X71.212 Y81.725 E7.6941
G1 X71.213 Y81.710 E7.6948
G1 X71.307 Y80.513 E7.7483
G1 X71.311 Y80.482 E7.7497
G1 X71.365 Y80.141 E7.7651
G1 X71.371 Y80.110 E7.7665
G1 X71.671 Y78.859 E7.8239
G1 X71.680 Y78.828 E7.8253
G1 X71.787 Y78.500 E7.8407
G1 X71.798 Y78.471 E7.8421
G1 X72.290 Y77.281 E7.8994
G1 X72.303 Y77.253 E7.9008
G1 X72.460 Y76.945 E7.9162
G1 X72.475 Y76.918 E7.9176
G1 X73.148 Y75.821 E7.9750
G1 X73.165 Y75.795 E7.9764
G1 X73.368 Y75.515 E7.9918
G1 X73.388 Y75.491 E7.9932
G1 X74.223 Y74.512 E8.0506
G1 X74.245 Y74.489 E8.0520
G1 X74.627 Y74.856 F3000
G92 E0
G1 X74.856 Y74.627 E0.0145 F1050
G1 X74.864 Y74.620 E0.0149
G1 X75.827 Y73.797 E0.0714
G1 X75.835 Y73.791 E0.0718
G1 X76.098 Y73.600 E0.0863
G1 X76.106 Y73.594 E0.0868
G1 X77.186 Y72.933 E0.1432
G1 X77.195 Y72.928 E0.1437
G1 X77.484 Y72.780 E0.1582
G1 X77.494 Y72.776 E0.1586
G1 X78.664 Y72.291 E0.2151
G1 X78.673 Y72.288 E0.2155
G1 X78.982 Y72.187 E0.2300
G1 X78.992 Y72.184 E0.2305
G1 X80.224 Y71.889 E0.2869
G1 X80.234 Y71.887 E0.2874
G1 X80.555 Y71.836 E0.3019
G1 X80.565 Y71.835 E0.3023
G1 X81.746 Y71.742 E0.3552
G1 X81.751 Y71.741 E0.3554
G1 X81.914 Y71.735 E0.3626
G1 X81.919 Y71.735 E0.3629
G1 X115.710 Y71.735 E1.8692
G1 X115.807 Y71.775 E1.8739
G1 X118.225 Y74.193 E2.0263
G1 X118.265 Y74.290 E2.0310
G1 X118.265 Y115.710 E3.8774
G1 X118.225 Y115.807 E3.8821
G1 X115.807 Y118.225 E4.0345
G1 X115.710 Y118.265 E4.0392
G1 X74.290 Y118.265 E5.8855
G1 X74.193 Y118.225 E5.8902
G1 X71.775 Y115.807 E6.0427
G1 X71.735 Y115.710 E6.0474
G1 X71.735 Y81.919 E7.5537
G1 X71.735 Y81.914 E7.5539
G1 X71.741 Y81.751 E7.5611
G1 X71.742 Y81.746 E7.5614
G1 X71.835 Y80.565 E7.6142
G1 X71.836 Y80.555 E7.6147
G1 X71.887 Y80.234 E7.6291
G1 X71.889 Y80.224 E7.6296
G1 X72.184 Y78.992 E7.6860
G1 X72.187 Y78.982 E7.6865
G1 X72.288 Y78.673 E7.7010
G1 X72.291 Y78.664 E7.7015
G1 X72.776 Y77.494 E7.7579
G1 X72.780 Y77.484 E7.7584
G1 X72.928 Y77.195 E7.7728
G1 X72.933 Y77.186 E7.7733
G1 X73.594 Y76.106 E7.8297
G1 X73.600 Y76.098 E7.8302
G1 X73.791 Y75.835 E7.8447
G1 X73.797 Y75.827 E7.8451
G1 X74.620 Y74.864 E7.9016
G1 X74.627 Y74.856 E7.9021
G92 E0
G1 E-1.0000 F1800
; inner perimeter
G1 X78.697 Y78.697 F3000
G1 E0.0000 F1800
G92 E0
G1 X79.255 Y78.221 E0.0327 F875
G1 X79.879 Y77.838 E0.0653
G1 X80.557 Y77.558 E0.0980
G1 X81.269 Y77.387 E0.1307
G1 X82.052 Y77.325 E0.1657
G1 X112.675 Y77.325 E1.5308
G1 X112.675 Y112.675 E3.1066
G1 X77.325 Y112.675 E4.6824
G1 X77.325 Y82.052 E6.0475
G1 X77.387 Y81.269 E6.0825
G1 X77.558 Y80.557 E6.1152
G1 X77.838 Y79.879 E6.1479
G1 X78.221 Y79.254 E6.1806
G1 X78.697 Y78.697 E6.2132
; inner perimeter
G1 X78.321 Y78.321 F3000
G92 E0
G1 X78.942 Y77.791 E0.0364 F700
G1 X79.638 Y77.364 E0.0728
G1 X80.392 Y77.052 E0.1092
G1 X81.186 Y76.862 E0.1456
G1 X82.031 Y76.795 E0.1834
G1 X113.205 Y76.795 E1.5730
